X:176
M:2/4
L:1/8
K:F
c/B/c/d/ ca|gfed|1 cc/d/ c/B/A/G/:|2 c2z||C|cc/d/ c/d/e/f/|g/a/g/e/ c>e|
dd/e/ d/e/f/g/|a/b/a/f/ dd/d/|ec/c/ fc/c/|gc/c/ ag/a/|bagf|ed c/B/A/G/|

